X: 1
T: Gweneen
M: 4/4
L: 1/8
R: reel
K: Gmin
F | FBdc cBBF | FGBG GFDF | B,2 DF BFGB | dccB GFGA |
BFdc cBBF | FGBG GFDF | B,2 DF BF d2 | cBBA B3 :|
F | Fffd dcBA | ABGB EBBG | FBDB FGBc | cdcB cAGF |
fddc dcBA | ABGB EBBG | FBDB FGBd | cBBA B3 :|
